public/avatar/shoe/19.svg

<svg xmlns:xlink="http://www.w3.org/1999/xlink" height="38.3" width="36.05" xmlns="http://www.w3.org/2000/svg"><use height="16.4" transform="translate(9.1 12.45)" width="23.3" xlink:href="#a"/><defs><g id="a"><path d="M-3.5-1.25q2.25-.85 4.85-.55 1.9.15 3.55 1.05L6 .3 4.6 1.35Q3.95 2 3.55 2.9l-.1.15Q2.1 2.7.95 1.95L-.45 1-2.8-.8l-.7-.45m11.4 6.5q.35 2.85.15 3.15l-.1.2-1.75 1.45-2.75 1.3L-.2 12.5l-.55.15-3.75.65q-5.05.65-8.75-.7l-.55-.3q-.3-.3-.35-3.45 2.75 1.7 5.9 1.75l2.6-.1 3.25-.6 1.55-.4.15-.05h.05l.4-.1 3.2-1 .65-.2 1.9-.85.15-.1.8-.5L7.9 5.25m-22 3.7-.05-.1.05.1m17.35.55q-.05.9.2 1.85-.25-.95-.2-1.85M6.2 8.05v2-2M-.45 10.5l.25 2-.25-2m-4.05.95v1.85-1.85" fill="#a9c8cf" fill-rule="evenodd" transform="translate(14.7 2.4)"/><path d="m-3.5-1.25.7.45L-.45 1l.3 1 .3 1.6-.4.5-.95.3-1.6-1q-2.45-1.55-5.55-1.5l-.2-.05Q-6.9-.55-4.1-1.1l.6-.15m6.95 4.3.1-.15q.4-.9 1.05-1.55L6 .3q1.7 1.1 1.95 3.1l-3.5-.15-1-.2" fill="#c36" fill-rule="evenodd" transform="translate(14.7 2.4)"/><path d="M7.95 3.4 7.9 5.25 6.45 6.7l-.8.5-.15.1-1.9.85q-.65-.55-.7-1.45-.05-1.05.15-2l.4-1.65 1 .2 3.5.15m-22.1 5.35q.1-1.9 1.05-3.4 1.6-2.55 4.55-3.5l.2.05q2.95.95 4.5 3.4Q-2.3 7.7-2.4 9.9l-3.25.6-2.6.1q-3.15-.05-5.9-1.75v-.1" fill="#f39" fill-rule="evenodd" transform="translate(14.7 2.4)"/><path d="m-.45 1 1.4.95q1.15.75 2.5 1.1l-.4 1.65q-.2.95-.15 2 .05.9.7 1.45l-.65.2-3.2 1-.4.1H-.7l-.15.05-1.55.4q.1-2.2-1.45-4.6-1.55-2.45-4.5-3.4 3.1-.05 5.55 1.5l1.6 1 .95-.3.4-.5-.3-1.6-.3-1" fill="#fff" fill-rule="evenodd" transform="translate(14.7 2.4)"/><path d="M-14.15 8.85h-.05l.05-.1v.1" fill="#8f8e01" fill-rule="evenodd" transform="translate(14.7 2.4)"/><path d="M6 .3 4.9-.75q-1.65-.9-3.55-1.05-2.6-.3-4.85.55l-.6.15q-2.8.55-4.45 2.95-2.95.95-4.55 3.5-.95 1.5-1.05 3.4M6 .3q1.7 1.1 1.95 3.1L7.9 5.25q.35 2.85.15 3.15l-.1.2-1.75 1.45-2.75 1.3L-.2 12.5l-.55.15-3.75.65q-5.05.65-8.75-.7l-.55-.3q-.3-.3-.35-3.45m17.6 2.5q-.25-.95-.2-1.85m2.95.55v-2M-4.5 13.3v-1.85m4.3 1.05-.25-2" fill="none" stroke="#936" stroke-linecap="round" stroke-linejoin="round" transform="translate(14.7 2.4)"/><path d="M-14.15 8.85h-.05l.05-.1v.1l.05.1" fill="none" stroke="#333" stroke-linecap="round" stroke-linejoin="round" transform="translate(14.7 2.4)"/></g></defs></svg>

<?xml version="1.0" encoding="UTF-8" standalone="no"?>
<svg xmlns:xlink="http://www.w3.org/1999/xlink" height="38.3px" width="36.05px" xmlns="http://www.w3.org/2000/svg">
  <g transform="matrix(1.0, 0.0, 0.0, 1.0, 23.8, 14.85)">
    <use height="16.4" transform="matrix(1.0, 0.0, 0.0, 1.0, -14.7, -2.4)" width="23.3" xlink:href="#shape0"/>
  </g>
  <defs>
    <g id="shape0" transform="matrix(1.0, 0.0, 0.0, 1.0, 14.7, 2.4)">
      <path d="M-3.5 -1.25 Q-1.25 -2.1 1.35 -1.8 3.25 -1.65 4.9 -0.75 L6.0 0.3 4.6 1.35 Q3.95 2.0 3.55 2.9 L3.45 3.05 Q2.1 2.7 0.95 1.95 L-0.45 1.0 -2.8 -0.8 -3.5 -1.25 M7.9 5.25 Q8.25 8.1 8.05 8.4 L7.95 8.6 6.2 10.05 3.45 11.35 -0.2 12.5 -0.75 12.65 -4.5 13.3 Q-9.55 13.95 -13.25 12.6 L-13.8 12.3 Q-14.1 12.0 -14.15 8.85 -11.4 10.55 -8.25 10.6 L-5.65 10.5 -2.4 9.9 -0.85 9.5 -0.7 9.45 -0.65 9.45 -0.25 9.35 2.95 8.35 3.6 8.15 5.5 7.3 5.65 7.2 6.45 6.7 7.9 5.25 M-14.1 8.95 L-14.15 8.85 -14.1 8.95 M3.25 9.5 Q3.2 10.4 3.45 11.35 3.2 10.4 3.25 9.5 M6.2 8.05 L6.2 10.05 6.2 8.05 M-0.45 10.5 L-0.2 12.5 -0.45 10.5 M-4.5 11.45 L-4.5 13.3 -4.5 11.45" fill="#a9c8cf" fill-rule="evenodd" stroke="none"/>
      <path d="M-3.5 -1.25 L-2.8 -0.8 -0.45 1.0 -0.15 2.0 0.15 3.6 -0.25 4.1 -1.2 4.4 -2.8 3.4 Q-5.25 1.85 -8.35 1.9 L-8.55 1.85 Q-6.9 -0.55 -4.1 -1.1 L-3.5 -1.25 M3.45 3.05 L3.55 2.9 Q3.95 2.0 4.6 1.35 L6.0 0.3 Q7.7 1.4 7.95 3.4 L4.45 3.25 3.45 3.05" fill="#cc3366" fill-rule="evenodd" stroke="none"/>
      <path d="M7.95 3.4 L7.9 5.25 6.45 6.7 5.65 7.2 5.5 7.3 3.6 8.15 Q2.95 7.6 2.9 6.7 2.85 5.65 3.05 4.7 L3.45 3.05 4.45 3.25 7.95 3.4 M-14.15 8.75 Q-14.05 6.85 -13.1 5.35 -11.5 2.8 -8.55 1.85 L-8.35 1.9 Q-5.4 2.85 -3.85 5.3 -2.3 7.7 -2.4 9.9 L-5.65 10.5 -8.25 10.6 Q-11.4 10.55 -14.15 8.85 L-14.15 8.75" fill="#ff3399" fill-rule="evenodd" stroke="none"/>
      <path d="M-0.45 1.0 L0.95 1.95 Q2.1 2.7 3.45 3.05 L3.05 4.7 Q2.85 5.65 2.9 6.7 2.95 7.6 3.6 8.15 L2.95 8.35 -0.25 9.35 -0.65 9.45 -0.7 9.45 -0.85 9.5 -2.4 9.9 Q-2.3 7.7 -3.85 5.3 -5.4 2.85 -8.35 1.9 -5.25 1.85 -2.8 3.4 L-1.2 4.4 -0.25 4.1 0.15 3.6 -0.15 2.0 -0.45 1.0" fill="#ffffff" fill-rule="evenodd" stroke="none"/>
      <path d="M-14.15 8.85 L-14.2 8.85 -14.15 8.75 -14.15 8.85" fill="#8f8e01" fill-rule="evenodd" stroke="none"/>
      <path d="M6.0 0.3 L4.9 -0.75 Q3.25 -1.65 1.35 -1.8 -1.25 -2.1 -3.5 -1.25 L-4.1 -1.1 Q-6.9 -0.55 -8.55 1.85 -11.5 2.8 -13.1 5.35 -14.05 6.85 -14.15 8.75 M6.0 0.3 Q7.7 1.4 7.95 3.4 L7.9 5.25 Q8.25 8.1 8.05 8.4 L7.95 8.6 6.2 10.05 3.45 11.35 -0.2 12.5 -0.75 12.65 -4.5 13.3 Q-9.55 13.95 -13.25 12.6 L-13.8 12.3 Q-14.1 12.0 -14.15 8.85 M3.45 11.35 Q3.2 10.4 3.25 9.5 M6.2 10.05 L6.2 8.05 M-4.5 13.3 L-4.5 11.45 M-0.2 12.5 L-0.45 10.5" fill="none" stroke="#993366" stroke-linecap="round" stroke-linejoin="round" stroke-width="1.0"/>
      <path d="M-14.15 8.85 L-14.2 8.85 -14.15 8.75 -14.15 8.85 -14.1 8.95" fill="none" stroke="#333333" stroke-linecap="round" stroke-linejoin="round" stroke-width="1.0"/>
    </g>
  </defs>
</svg>
